assets/img/p3.svg

<svg width="24" height="24" viewBox="0 0 24 24" fill="none" xmlns="http://www.w3.org/2000/svg">
<path d="M23 23.5H12.5C12.3674 23.5 12.2402 23.4473 12.1464 23.3536C12.0527 23.2598 12 23.1326 12 23V1C12 0.867392 12.0527 0.740215 12.1464 0.646447C12.2402 0.552678 12.3674 0.5 12.5 0.5C12.5463 0.50007 12.5924 0.506463 12.637 0.519L23.137 3.519C23.2416 3.5488 23.3336 3.61187 23.3991 3.69867C23.4646 3.78547 23.5 3.89126 23.5 4V23C23.5 23.1326 23.4473 23.2598 23.3536 23.3536C23.2598 23.4473 23.1326 23.5 23 23.5Z" fill="#58BFCA"/>
<path d="M8.912 12.5H1C0.723858 12.5 0.5 12.7239 0.5 13V23C0.5 23.2761 0.723858 23.5 1 23.5H8.912C9.18814 23.5 9.412 23.2761 9.412 23V13C9.412 12.7239 9.18814 12.5 8.912 12.5Z" fill="#AEAEAE"/>
<path d="M21 2.90845V20.9999C21 21.1326 21.0527 21.2597 21.1464 21.3535C21.2402 21.4473 21.3674 21.4999 21.5 21.4999C21.6326 21.4999 21.7598 21.4473 21.8536 21.3535C21.9473 21.2597 22 21.1326 22 20.9999V3.19395L21 2.90845Z" fill="#A0E6EE"/>
<path d="M18.5 2.19409V21.0001C18.5 21.1327 18.5527 21.2599 18.6464 21.3536C18.7402 21.4474 18.8674 21.5001 19 21.5001C19.1326 21.5001 19.2598 21.4474 19.3536 21.3536C19.4473 21.2599 19.5 21.1327 19.5 21.0001V2.48009L18.5 2.19409Z" fill="#A0E6EE"/>
<path d="M16.5 21.5C16.6326 21.5 16.7598 21.4473 16.8536 21.3535C16.9473 21.2598 17 21.1326 17 21V1.76549L16 1.47949V21C16 21.1326 16.0527 21.2598 16.1464 21.3535C16.2402 21.4473 16.3674 21.5 16.5 21.5Z" fill="#A0E6EE"/>
<path d="M14 21.4999C14.1326 21.4999 14.2598 21.4472 14.3536 21.3535C14.4473 21.2597 14.5 21.1325 14.5 20.9999V1.0499L13.5 0.764404V20.9999C13.5 21.1325 13.5527 21.2597 13.6464 21.3535C13.7402 21.4472 13.8674 21.4999 14 21.4999Z" fill="#A0E6EE"/>
<path d="M14 8.5H5C4.86739 8.5 4.74021 8.55268 4.64645 8.64645C4.55268 8.74021 4.5 8.86739 4.5 9V23C4.5 23.1326 4.55268 23.2598 4.64645 23.3536C4.74021 23.4473 4.86739 23.5 5 23.5H14C14.1326 23.5 14.2598 23.4473 14.3536 23.3536C14.4473 23.2598 14.5 23.1326 14.5 23V9C14.5 8.86739 14.4473 8.74021 14.3536 8.64645C14.2598 8.55268 14.1326 8.5 14 8.5Z" fill="#363636"/>
<path d="M12.037 10.5H6.963C6.70729 10.5 6.5 10.7073 6.5 10.963V12.037C6.5 12.2927 6.70729 12.5 6.963 12.5H12.037C12.2927 12.5 12.5 12.2927 12.5 12.037V10.963C12.5 10.7073 12.2927 10.5 12.037 10.5Z" fill="#A0D9F8"/>
<path d="M12.086 13.5H6.914C6.68535 13.5 6.5 13.6854 6.5 13.914V15.086C6.5 15.3146 6.68535 15.5 6.914 15.5H12.086C12.3146 15.5 12.5 15.3146 12.5 15.086V13.914C12.5 13.6854 12.3146 13.5 12.086 13.5Z" fill="#A0D9F8"/>
<path d="M12.037 16.5H6.963C6.70729 16.5 6.5 16.7073 6.5 16.963V18.037C6.5 18.2927 6.70729 18.5 6.963 18.5H12.037C12.2927 18.5 12.5 18.2927 12.5 18.037V16.963C12.5 16.7073 12.2927 16.5 12.037 16.5Z" fill="#A0D9F8"/>
<path d="M10 20H9C8.86739 20 8.74021 20.0527 8.64645 20.1464C8.55268 20.2402 8.5 20.3674 8.5 20.5V23.5H10.5V20.5C10.5 20.3674 10.4473 20.2402 10.3536 20.1464C10.2598 20.0527 10.1326 20 10 20Z" fill="#AEAEAE"/>
</svg>

<svg xmlns="http://www.w3.org/2000/svg" xmlns:xlink="http://www.w3.org/1999/xlink" width="24" height="24" fill="none" xmlns:v="https://vecta.io/nano"><path d="M23 23.5H12.5a.5.5 0 0 1-.5-.5V1a.5.5 0 0 1 .5-.5.51.51 0 0 1 .137.019l10.5 3A.5.5 0 0 1 23.5 4v19a.5.5 0 0 1-.5.5z" fill="#58bfca"/><path d="M8.912 12.5H1a.5.5 0 0 0-.5.5v10a.5.5 0 0 0 .5.5h7.912a.5.5 0 0 0 .5-.5V13a.5.5 0 0 0-.5-.5z" fill="#aeaeae"/><path d="M21 2.908V21a.5.5 0 1 0 1 0V3.194l-1-.285zm-2.5-.714V21a.5.5 0 1 0 1 0V2.48l-1-.286zm-2 19.306a.5.5 0 0 0 .5-.5V1.765l-1-.286V21a.5.5 0 0 0 .5.5zm-2.5 0a.5.5 0 0 0 .5-.5V1.05l-1-.285V21a.5.5 0 0 0 .5.5z" fill="#a0e6ee"/><path d="M14 8.5H5a.5.5 0 0 0-.5.5v14a.5.5 0 0 0 .5.5h9a.5.5 0 0 0 .5-.5V9a.5.5 0 0 0-.5-.5z" fill="#363636"/><g fill="#a0d9f8"><use xlink:href="#B"/><path d="M12.086 13.5H6.914c-.229 0-.414.185-.414.414v1.172c0 .229.185.414.414.414h5.172c.229 0 .414-.185.414-.414v-1.172c0-.229-.185-.414-.414-.414z"/><use xlink:href="#B" y="6"/></g><path d="M10 20H9a.5.5 0 0 0-.5.5v3h2v-3a.5.5 0 0 0-.5-.5z" fill="#aeaeae"/><defs ><path id="B" d="M12.037 10.5H6.963c-.256 0-.463.207-.463.463v1.074c0 .256.207.463.463.463h5.074c.256 0 .463-.207.463-.463v-1.074c0-.256-.207-.463-.463-.463z"/></defs></svg>
